X:141
T:Janeys Babe
O:No 141 William Clarke of Feltwell
M:4/4
L:1/8
N:Also known as Jennys Bawbee, Polly put the Kettle On.
K:D
a|a>bag fddf|gBed cAAa|a>bag fddc|Bdced2d::e|fdge fddc|Beed cAAe|fdge fddc|Bdced2de|fdge fddf|gBed cAAe|fdge afbg|fedc defg||


